setcps(125/60/4)

hush

d1 $ silence

xfadeIn 1 4 $ fast (range 2 4 $ slow 4 $ sine)
   $ sound "bd*32"
   # shape (range 0.8 1 $ slow 2 $ sine)
   # crush (range 2 3 $ slow 4 $ cosine)
   # lpf (range 800 1200 $ slow 5 $ cosine)

d2 $ silence

xfadeIn 2 16 $ fast 2
   $ sound "bd*32"
   # shape (range 0.6 1 $ slow 2 $ sine)
   # crush (range 2 3 $ slow 4 $ cosine)
   # lpf (range 800 1200 $ slow 3 $ sine)
   # gain "0.8"

d3 $ sound "clap*32" # speed (-0.02)

hush

